X:755
T:Paddy Fahy's
R:reel
C:Paddy Fahy
S:Dudde
H:Also played in D, #533
Z:id:hn-reel-755
M:C|
K:G
GFDC A,B,CA,|D2~D2 FDAF|GFDE FGAB|c2Bc AcBA|
GFDC A,B,CA,|D2~D2 FDAF|GFDE FGAG|FDCA, G,A,B,D:|
|:G2dB cABG|GFDC A,B,CE|DG~G2 dGBG|GFDC DGGF|
G2AB cAAG|FADE =FE=FG|AddB cBce|dcAG FGAF:|
